X: 141
T: No_97_Song_for_Leaders_of_the_Ceremony_(b).krn
N: Derived from No_97_Song_for_Leaders_of_the_Ceremony_(b).krn
%%abc-version 2.0
%%abcx-abcm2ps-target-version 5.9.1 (29 Sep 2008)
%%abc-creator hum2abc beta
%%abcx-conversion-date 2019/03/15 08:35:45
%%humdrum-veritas 2532501358
%%humdrum-veritas-data 957595922
%%linebreak <none>
%%barnumbers 0
L: 1/8
M: 3/8
K: B clef=bass
[K:clef=bass][M:3/8]z2B, | 
D2C ||  
[M:2/4]B,B, B,3/B,/ | 
B,4 ||  
[M:3/8]B,F,/ z/ C | 
D2C ]|:  
[M:2/4]B,B, B,3/B,/ ||  
[M:3/4]B,3B,B,2 ||  
[M:2/4]B,/F,/F,/F,/ B,F, | 
D,B,,B,,2 | 
F,/B,,/B,,/B,,/ D,B,, | 
B,,B,, B,,B,, | 
B,,4 | 
B,,2z2 :|]  



